assets/images/sponsors-logos/jp-morgan.svg

<svg xmlns="http://www.w3.org/2000/svg" preserveAspectRatio="xMinYMin" viewBox="1 0 126 27" width="114pt">
  <path d="M14 1H6.6v.6H9v12.2c0 3.7-1 4.7-3.3 4.7-1.4 0-1.7-1.1-1.7-1.6 0-1.3-.1-2.2-1.3-2.2s-1.4 1.2-1.4 1.6c0 1.7.8 3 4.1 3 4 0 6.1-1.3 6.1-5.8V1.6h2.4V1h.1m1 15.5c-.4 0-.8.101-1 .4-.3.3-.4.6-.4 1 0 .399.1.7.4 1 .3.3.6.399 1 .399s.7-.1 1-.399c.3-.299.4-.601.4-1 0-.4-.1-.7-.4-1-.3-.3-.6-.4-1-.4m16.4 0c-.4 0-.7.101-1 .4-.3.3-.4.6-.4 1 0 .399.1.7.4 1 .3.3.6.399 1 .399s.8-.1 1-.399c.3-.3.4-.601.4-1 0-.4-.1-.7-.4-1-.3-.3-.6-.4-1-.4M26.2 1H19v.6h2.1v14c0 1.1-.1 1.399-.2 1.699-.1.401-.4.601-.9.801-.3.1-.8.199-1.5.199v.601h7.8v-.6c-.7 0-1.2-.1-1.5-.199-.5-.2-.8-.5-.9-.801-.1-.3-.2-.6-.2-1.1v-4.8h1.9c5.6 0 7.2-2.2 7.2-5.2 0-3.1-.9-5.2-6.6-5.2m-1 9.7h-1.5v-9H25c4.3 0 5.3 1.8 5.3 4.6 0 2.9-1.7 4.4-5.1 4.4m30.7 6.5c-.1-.3-.2-.7-.2-1.2V1.6h1.9V1H53c-.1.2-5.5 13.6-5.5 13.6l-.1.1c-.1 0-.1 0-.1-.1 0 0-5.8-13.5-5.8-13.601h-5.1V1.6h2.2V16.8c0 .301-.1.601-.3.9-.2.3-.5.5-.8.6-.2.101-.6.101-1 .101V19h5v-.6c-.4 0-.6-.101-.9-.101-.4-.1-.6-.3-.8-.6-.2-.2-.3-.5-.3-.9l-.1-1.3v-12h.3s6.5 15.2 6.6 15.4h.5L53 3.6h.2V16c0 .5-.1.9-.2 1.3s-.4.601-.8.801c-.3.1-.7.199-1.3.199v.6h7v-.6c-.6 0-1-.1-1.3-.199-.3-.201-.6-.501-.7-.901m9.5-11.4c-3.8 0-6.1 2.5-6.1 6.801 0 6.399 5 6.8 6 6.8 2.1 0 6.1-1.3 6.1-6.9 0-4.401-2.6-6.701-6-6.701m-.1 12.8c-2.8 0-3.3-1.4-3.3-5.9 0-3.5.2-6.1 3.3-6.1 3.3 0 3.3 2.699 3.3 5.899 0 4.501-.8 6.101-3.3 6.101M81.201 6c-2.201 0-3 1.3-3.601 2.7h-.2s-.3-2-.4-2.5h-4.399v.7H75v8.8c0 .9-.1 1.5-.299 1.9-.201.4-.801.7-1.701.7h-.4v.8H80v-.8h-.4c-1 0-1.399-.199-1.601-.6-.199-.4-.299-1-.299-1.9V11c0-1.5 1.199-3.3 2.6-3.3 1.5 0 1.4 2.2 3.1 1.3.801-.5.6-3-2.199-3M110.3 17.6c-.801 0-1-.4-1.1-1.2v-7c0-1.2-.201-1.9-.9-2.601-.7-.699-2-1-3.9-1-1.8 0-3.1.301-4 1C99.6 7.4 99.201 8 99.201 8.9c0 .399.1.7.299.8.201.2.5.3.8.3.699 0 1.1-.399 1.3-1.3.101-.7.3-1.1.601-1.5.399-.4 1-.6 1.699-.6.9 0 1.6.199 1.9.699.3.5.5 1.101.5 1.9v2.1c-2.301.2-7.9.7-7.6 4.9.1 1.6 1.5 3.1 3.399 3.1 2.101 0 3.399-1.199 4.3-2.1.1.9 1 2 2.5 2 1.7 0 2.7-.8 2.801-2.9h-.4c0 .801-.5 1.301-1 1.301m-3.8-1.4v.1l-.1.101c-1.199 1.1-2.199 1.5-2.9 1.5-1.799 0-2.1-1.5-2.1-2.2 0-2.4 3.301-3.6 5.1-3.6V16.2m18.8 1.3c-.2-.399-.5-1-.5-1.899V9.8c0-.8-.1-1.6-.4-2.1-.3-.6-.8-1-1.3-1.3-.6-.3-1.2-.4-1.899-.4C118.6 6 117.6 7.6 117 8.5h-.2l-.5-2.3h-4v.7h2v8.8c0 .7-.1 1.2-.2 1.5-.101.4-.399.7-.7.8-.199.101-.6.2-1.1.2v.8h6.3v-.8c-.601-.1-1.101-.2-1.3-.5-.2-.3-.4-.9-.4-1.8v-3.4c0-1.399 0-2.8.5-3.6.5-.9 1.5-1.4 2.5-1.4s1.5.3 1.801.9c.299.5.399 2 .399 3v4.2c0 .699.101 1.199 0 1.5-.1.4-.2.7-.5.9-.2.2-.601.2-1 .3v.8h6.101v-.8c-.701-.3-1.201-.5-1.401-.8M96.701 5.2c-.4.1-.601.5-.801 1-.1.5-.3.8-.6.9-.3.1-.599.1-.9-.1-.699-.6-1.9-1.3-4.1-1.3-3.6 0-5.1 2.5-5.1 4.8 0 2.7 1 4 3.299 4.5.101 0 .101.2 0 .2-1.899.4-3.699 1-3.699 2.8 0 1.101.6 1.7 1.5 2.101.9.399 2.199.6 3.8.6 1.399 0 2.399.1 3 .1.7.101 1.2.301 1.7.601.4.3.6.8.6 1.399 0 .9-.5 1.5-1.4 2.101-.899.5-2 .7-3.5.7-1.199 0-2.299-.101-3.199-.7-.7-.4-.801-1.2-.7-1.8.101-.601-.101-1.2-.8-1.4-.4-.1-.9.1-1.1.5-.201.298-.301.698-.301 1.198 0 1.5 1.2 2.2 2.1 2.5 1.4.399 2.301.5 3.5.5 1.701 0 3-.3 4-.7 1-.5 1.601-1.1 2-1.8.4-.7.601-1.4.601-2.101C96.6 20.9 96.4 20.1 96 19.6c-1.299-1.7-3.1-1.5-7.1-1.7-1.9 0-2.3-.4-2.3-1 0-.9.7-1.2 3.5-1.7 2.8-.4 5.399-1.5 5.399-4.8 0-1-.199-1.8-.5-2.4.601.1 1.101.1 1.601 0 .601-.2.899-.5 1.101-.8.199-.4.299-.8.099-1.1.1-.8-.4-1.1-1.099-.9M90.4 14.6c-1.699 0-2.6-.601-2.6-4 0-2.4.8-4.2 2.6-4.2 2.1 0 2.7 1.6 2.7 4.1 0 3.6-1.1 4.1-2.7 4.1" fill="#54301a"/>
</svg>

<?xml version="1.0" encoding="UTF-8" standalone="no"?>
<!DOCTYPE svg PUBLIC "-//W3C//DTD SVG 1.1//EN" "http://www.w3.org/Graphics/SVG/1.1/DTD/svg11.dtd">
<svg xmlns="http://www.w3.org/2000/svg" xmlns:xl="http://www.w3.org/1999/xlink" version="1.1" preserveAspectRatio="xMinYMin" viewBox="1 0 126 27" width="126pt" height="27pt" xmlns:dc="http://purl.org/dc/elements/1.1/">
  <metadata> Produced by OmniGraffle 7.5 
    <dc:date>2017-12-02 20:51:57 +0000</dc:date>
  </metadata>
  <defs/>
  <g>
    <title>Canvas 1</title>
    <g>
      <title>Layer 1</title>
      <path d="M 14 1 L 6.6 1 L 6.6 1.6 L 9 1.6 L 9 13.8 C 9 17.5 8 18.5 5.7 18.5 C 4.3 18.5 4 17.4 4 16.9 C 4 15.6 3.9 14.7 2.7 14.7 C 1.5 14.7 1.3 15.9 1.3 16.3 C 1.3 18 2.1 19.3 5.4 19.3 C 9.4 19.3 11.5 18 11.5 13.5 L 11.5 1.6 L 13.9 1.6 L 13.9 1 L 14 1 M 15 16.5 C 14.6 16.5 14.2 16.601 14 16.9 C 13.7 17.2 13.6 17.5 13.6 17.9 C 13.6 18.299 13.7 18.6 14 18.9 C 14.3 19.2 14.6 19.299 15 19.299 C 15.4 19.299 15.7 19.199 16 18.9 C 16.3 18.601 16.4 18.299 16.4 17.9 C 16.4 17.5 16.3 17.2 16 16.9 C 15.7 16.6 15.4 16.5 15 16.5 M 31.4 16.5 C 31 16.5 30.7 16.601 30.4 16.9 C 30.1 17.2 30 17.5 30 17.9 C 30 18.299 30.1 18.6 30.4 18.9 C 30.7 19.2 31 19.299 31.4 19.299 C 31.8 19.299 32.2 19.199 32.4 18.9 C 32.7 18.6 32.8 18.299 32.8 17.9 C 32.8 17.5 32.7 17.2 32.4 16.9 C 32.1 16.6 31.8 16.5 31.4 16.5 M 26.2 1 L 19 1 L 19 1.6 L 21.1 1.6 L 21.1 15.6 C 21.1 16.7 21 16.999 20.9 17.299 C 20.8 17.7 20.5 17.9 20 18.1 C 19.7 18.2 19.2 18.299 18.5 18.299 L 18.5 18.9 L 26.3 18.9 L 26.3 18.3 C 25.6 18.3 25.1 18.2 24.8 18.101 C 24.3 17.901 24 17.601 23.9 17.3 C 23.8 17 23.7 16.7 23.7 16.2 L 23.7 11.4 L 25.6 11.4 C 31.2 11.4 32.8 9.2 32.8 6.2 C 32.8 3.1 31.9 1 26.2 1 M 25.2 10.7 L 23.7 10.7 L 23.7 1.7 L 25 1.7 C 29.3 1.7 30.3 3.5 30.3 6.3 C 30.3 9.2 28.6 10.7 25.2 10.7 M 55.9 17.2 C 55.8 16.9 55.7 16.5 55.7 16 L 55.7 1.6 L 57.6 1.6 L 57.6 1 L 53 1 C 52.9 1.2 47.5 14.6 47.5 14.6 L 47.4 14.7 C 47.3 14.7 47.3 14.7 47.3 14.6 C 47.3 14.6 41.5 1.1 41.5 .999 L 36.4 .999 L 36.4 1.6 L 38.6 1.6 L 38.6 15.5 L 38.6 16.8 C 38.6 17.101 38.5 17.401 38.3 17.7 C 38.1 18 37.8 18.2 37.5 18.3 C 37.3 18.401 36.9 18.401 36.5 18.401 L 36.5 19 L 41.5 19 L 41.5 18.4 C 41.1 18.4 40.9 18.299 40.6 18.299 C 40.2 18.199 40 17.999 39.8 17.699 C 39.6 17.499 39.5 17.199 39.5 16.799 L 39.4 15.499 L 39.4 3.499 L 39.7 3.499 C 39.7 3.499 46.2 18.699 46.3 18.899 L 46.8 18.899 L 53 3.6 L 53.2 3.6 L 53.2 16 C 53.2 16.5 53.1 16.9 53 17.3 C 52.9 17.7 52.6 17.901 52.2 18.101 C 51.9 18.201 51.5 18.3 50.9 18.3 L 50.9 18.9 L 57.9 18.9 L 57.9 18.3 C 57.3 18.3 56.9 18.2 56.6 18.101 C 56.3 17.9 56 17.6 55.9 17.2 M 65.4 5.8 C 61.6 5.8 59.3 8.3 59.3 12.601 C 59.3 19 64.3 19.401 65.3 19.401 C 67.4 19.401 71.4 18.101 71.4 12.501 C 71.4 8.1 68.8 5.8 65.4 5.8 M 65.3 18.6 C 62.5 18.6 62 17.2 62 12.7 C 62 9.2 62.2 6.6 65.3 6.6 C 68.6 6.6 68.6 9.299 68.6 12.499 C 68.6 17 67.8 18.6 65.3 18.6 M 81.201 6 C 79 6 78.201 7.3 77.6 8.7 L 77.4 8.7 C 77.4 8.7 77.1 6.7 77 6.2 C 76.101 6.2 72.601 6.2 72.601 6.2 L 72.601 6.9 L 75 6.9 C 75 6.9 75 8.9 75 9.6 L 75 15.7 C 75 16.6 74.9 17.2 74.701 17.6 C 74.5 18 73.9 18.3 73 18.3 L 72.6 18.3 L 72.6 19.1 L 80 19.1 L 80 18.3 L 79.6 18.3 C 78.6 18.3 78.201 18.101 77.999 17.7 C 77.8 17.3 77.7 16.7 77.7 15.8 L 77.7 11 C 77.7 9.5 78.899 7.7 80.3 7.7 C 81.8 7.7 81.7 9.9 83.4 9 C 84.201 8.5 84 6 81.201 6 M 110.3 17.6 C 109.499 17.6 109.3 17.2 109.2 16.4 L 109.2 14.8 L 109.2 9.4 C 109.2 8.2 108.999 7.5 108.3 6.799 C 107.6 6.1 106.3 5.799 104.4 5.799 C 102.6 5.799 101.3 6.1 100.4 6.799 C 99.6 7.4 99.201 8 99.201 8.9 C 99.201 9.299 99.301 9.6 99.5 9.7 C 99.701 9.9 100 10 100.3 10 C 100.999 10 101.4 9.601 101.6 8.7 C 101.701 8 101.9 7.6 102.201 7.2 C 102.6 6.8 103.201 6.6 103.9 6.6 C 104.8 6.6 105.5 6.799 105.8 7.299 C 106.1 7.799 106.3 8.4 106.3 9.199 L 106.3 11.299 C 103.999 11.499 98.4 11.999 98.7 16.199 C 98.8 17.799 100.2 19.299 102.099 19.299 C 104.2 19.299 105.498 18.1 106.399 17.199 C 106.499 18.099 107.399 19.199 108.899 19.199 C 110.599 19.199 111.599 18.399 111.7 16.299 L 111.3 16.299 C 111.3 17.1 110.8 17.6 110.3 17.6 M 106.5 16.2 L 106.5 16.3 L 106.4 16.401 C 105.201 17.501 104.201 17.901 103.5 17.901 C 101.701 17.901 101.4 16.401 101.4 15.701 C 101.4 13.301 104.701 12.101 106.5 12.101 L 106.5 16.2 M 125.3 17.5 C 125.1 17.101 124.8 16.5 124.8 15.601 L 124.8 9.8 C 124.8 9 124.7 8.2 124.4 7.7 C 124.1 7.1 123.6 6.7 123.1 6.4 C 122.5 6.1 121.9 6 121.201 6 C 118.6 6 117.6 7.6 117 8.5 L 116.8 8.5 L 116.3 6.2 L 112.3 6.2 L 112.3 6.9 C 112.999 6.9 114.3 6.9 114.3 6.9 L 114.3 15.7 C 114.3 16.4 114.2 16.9 114.1 17.2 C 113.999 17.6 113.701 17.9 113.4 18 C 113.201 18.101 112.8 18.2 112.3 18.2 L 112.3 19 L 118.6 19 L 118.6 18.2 C 117.999 18.1 117.499 18 117.3 17.7 C 117.1 17.4 116.9 16.8 116.9 15.9 L 116.9 12.5 C 116.9 11.101 116.9 9.7 117.4 8.9 C 117.9 8 118.9 7.5 119.9 7.5 C 120.9 7.5 121.4 7.8 121.701 8.4 C 122 8.9 122.1 10.4 122.1 11.4 L 122.1 15.6 C 122.1 16.299 122.201 16.799 122.1 17.1 C 122 17.5 121.9 17.8 121.6 18 C 121.4 18.2 120.999 18.2 120.6 18.3 L 120.6 19.1 L 126.701 19.1 L 126.701 18.3 C 126 18 125.5 17.8 125.3 17.5 M 96.701 5.2 C 96.301 5.3 96.1 5.7 95.9 6.2 C 95.8 6.7 95.6 7 95.3 7.1 C 95 7.2 94.701 7.2 94.4 7 C 93.701 6.4 92.5 5.7 90.3 5.7 C 86.7 5.7 85.2 8.2 85.2 10.5 C 85.2 13.2 86.2 14.5 88.499 15 C 88.6 15 88.6 15.2 88.499 15.2 C 86.6 15.6 84.8 16.2 84.8 18 C 84.8 19.101 85.4 19.7 86.3 20.101 C 87.2 20.5 88.499 20.701 90.1 20.701 C 91.499 20.701 92.499 20.801 93.1 20.801 C 93.8 20.902 94.3 21.102 94.8 21.402 C 95.2 21.702 95.4 22.202 95.4 22.801 C 95.4 23.701 94.9 24.301 94 24.902 C 93.101 25.402 92 25.602 90.5 25.602 C 89.301 25.602 88.201 25.501 87.301 24.902 C 86.601 24.502 86.5 23.702 86.601 23.102 C 86.702 22.501 86.5 21.902 85.801 21.702 C 85.401 21.602 84.901 21.802 84.701 22.202 C 84.5 22.5 84.4 22.9 84.4 23.4 C 84.4 24.9 85.6 25.6 86.5 25.9 C 87.9 26.299 88.801 26.4 90 26.4 C 91.701 26.4 93 26.1 94 25.7 C 95 25.2 95.601 24.6 96 23.9 C 96.4 23.2 96.601 22.5 96.601 21.799 C 96.6 20.9 96.4 20.1 96 19.6 C 94.701 17.9 92.9 18.1 88.9 17.9 C 87 17.9 86.6 17.5 86.6 16.9 C 86.6 16 87.3 15.7 90.1 15.2 C 92.9 14.8 95.499 13.7 95.499 10.4 C 95.499 9.4 95.3 8.6 94.999 8 C 95.6 8.1 96.1 8.1 96.6 8 C 97.201 7.8 97.499 7.5 97.701 7.2 C 97.9 6.8 98 6.4 97.8 6.1 C 97.9 5.3 97.4 5 96.701 5.2 M 90.4 14.6 C 88.701 14.6 87.8 13.999 87.8 10.6 C 87.8 8.2 88.6 6.4 90.4 6.4 C 92.5 6.4 93.1 8 93.1 10.5 C 93.1 14.1 92 14.6 90.4 14.6" fill="#54301a"/>
    </g>
  </g>
</svg>
